X: 4
T: March Of The Men Of Harlech, The
Z: Mix O'Lydian
S: https://thesession.org/tunes/13597#setting26512
R: barndance
M: 4/4
L: 1/8
K: Gmaj
|: G3 F E3 F | G2 A2 B2 G2 | c2 B2 A2 G2 | F2 E2 F2 D2 |
G3 F E3 F | G2 A2 B e3 | d B3 A3 B | G4-G2 z2 :|
A3 G F3 G | A2 A2 z4 | d3 c B3 c | d2 d2 z4 |
d3 c B3 c | dedc B3 c | dedc BABc | d2 d2-d2 z2 |
e2 e2 d2 d2 | c2 c2 B2 B2 | A2 cB A2 G2 | F2 E2 F2 D2 |
G3 F E3 F | G2 A2 B e3 | d B3 A3 B | G4-G2 z2 |]
